X:466
T:Mama's Pet
R:jig
Z:hn-jig-466
M:6/8
L:1/8
K:D
FAA Bcd | cAA cde | ~f3 ged | cAA GED |
FAA Bcd | cAA cde | ~f3 ged |1 cAA A2G :|2 cAA A2f ||
|: gfg eaf | ged cde | fef ged | cAA GED | 
[1 ~g3 eaf | ged cde | fef ged | cAA A2f :|
[2 FAA Bcd | cAA cde | ~f3 ged | cAA A2G ||

